Icons/Colored/StarOutline.svg

<svg xmlns="http://www.w3.org/2000/svg" xml:space="preserve" fill-rule="evenodd" stroke-linejoin="round" stroke-miterlimit="2" clip-rule="evenodd" viewBox="0 0 64 64">
  <g id="orange">
    <path fill="#ffc60e" fill-rule="nonzero" d="M32 15.066s-3.504 10.422-4.34 12.914a.8.8 0 0 1-.738.543c-1.902.051-8.207.219-11.578.313a.805.805 0 0 0-.739.543.806.806 0 0 0 .258.879c2.688 2.168 7.782 6.273 9.262 7.465.25.199.355.531.27.84-.508 1.792-2.235 7.906-3.176 11.242a.8.8 0 0 0 1.238.863c2.703-1.953 7.555-5.465 9.074-6.563a.798.798 0 0 1 .938 0c1.519 1.098 6.371 4.61 9.074 6.563a.8.8 0 0 0 1.238-.863c-.941-3.336-2.668-9.45-3.176-11.242a.802.802 0 0 1 .27-.84c1.48-1.192 6.574-5.297 9.262-7.465a.806.806 0 0 0 .258-.879.805.805 0 0 0-.739-.543c-3.371-.094-9.676-.262-11.578-.313a.8.8 0 0 1-.738-.543C35.504 25.488 32 15.066 32 15.066m-.758-12.808a.798.798 0 0 1 1.516 0c1.777 5.285 6.129 18.238 7.066 21.012.106.32.399.535.735.546 2.871.079 16.019.43 21.269.571a.802.802 0 0 1 .481 1.422c-4.168 3.359-14.735 11.875-16.954 13.66a.793.793 0 0 0-.265.84c.781 2.773 4.555 16.132 6.062 21.476a.798.798 0 0 1-.312.875.798.798 0 0 1-.926-.008L32.469 50.027a.798.798 0 0 0-.938 0L14.086 62.652a.798.798 0 0 1-.926.008.798.798 0 0 1-.312-.875c1.507-5.344 5.281-18.703 6.062-21.476a.793.793 0 0 0-.265-.84c-2.219-1.785-12.786-10.301-16.954-13.66a.8.8 0 0 1 .481-1.422c5.25-.141 18.398-.492 21.269-.571a.798.798 0 0 0 .735-.546c.937-2.774 5.289-15.727 7.066-21.012Z"/>
  </g>
</svg>

<?xml version="1.0" encoding="UTF-8" standalone="no"?>
<!DOCTYPE svg PUBLIC "-//W3C//DTD SVG 1.1//EN" "http://www.w3.org/Graphics/SVG/1.1/DTD/svg11.dtd">
<svg width="100%" height="100%" viewBox="0 0 64 64" version="1.1" xmlns="http://www.w3.org/2000/svg" xmlns:xlink="http://www.w3.org/1999/xlink" xml:space="preserve" xmlns:serif="http://www.serif.com/" style="fill-rule:evenodd;clip-rule:evenodd;stroke-linejoin:round;stroke-miterlimit:2;">
    <g id="surface1">
        <path d="M32,15.066C32,15.066 28.496,25.488 27.66,27.98C27.551,28.297 27.258,28.516 26.922,28.523C25.02,28.574 18.715,28.742 15.344,28.836C15.008,28.844 14.715,29.063 14.605,29.379C14.5,29.695 14.602,30.047 14.863,30.258C17.551,32.426 22.645,36.531 24.125,37.723C24.375,37.922 24.48,38.254 24.395,38.563C23.887,40.355 22.16,46.469 21.219,49.805C21.125,50.133 21.25,50.48 21.531,50.676C21.809,50.871 22.184,50.867 22.457,50.668C25.16,48.715 30.012,45.203 31.531,44.105C31.813,43.902 32.188,43.902 32.469,44.105C33.988,45.203 38.84,48.715 41.543,50.668C41.816,50.867 42.191,50.871 42.469,50.676C42.75,50.48 42.875,50.133 42.781,49.805C41.84,46.469 40.113,40.355 39.605,38.563C39.52,38.254 39.625,37.922 39.875,37.723C41.355,36.531 46.449,32.426 49.137,30.258C49.398,30.047 49.5,29.695 49.395,29.379C49.285,29.063 48.992,28.844 48.656,28.836C45.285,28.742 38.98,28.574 37.078,28.523C36.742,28.516 36.449,28.297 36.34,27.98C35.504,25.488 32,15.066 32,15.066M31.242,2.258C31.352,1.93 31.656,1.711 32,1.711C32.344,1.711 32.648,1.93 32.758,2.258C34.535,7.543 38.887,20.496 39.824,23.27C39.93,23.59 40.223,23.805 40.559,23.816C43.43,23.895 56.578,24.246 61.828,24.387C62.16,24.398 62.457,24.613 62.563,24.93C62.672,25.246 62.566,25.602 62.309,25.809C58.141,29.168 47.574,37.684 45.355,39.469C45.105,39.672 45,40 45.09,40.309C45.871,43.082 49.645,56.441 51.152,61.785C51.246,62.113 51.121,62.465 50.84,62.66C50.563,62.855 50.188,62.852 49.914,62.652C45.543,59.488 34.84,51.742 32.469,50.027C32.188,49.824 31.813,49.824 31.531,50.027C29.16,51.742 18.457,59.488 14.086,62.652C13.813,62.852 13.438,62.855 13.16,62.66C12.879,62.465 12.754,62.113 12.848,61.785C14.355,56.441 18.129,43.082 18.91,40.309C19,40 18.895,39.672 18.645,39.469C16.426,37.684 5.859,29.168 1.691,25.809C1.434,25.602 1.328,25.246 1.438,24.93C1.543,24.613 1.84,24.398 2.172,24.387C7.422,24.246 20.57,23.895 23.441,23.816C23.777,23.805 24.07,23.59 24.176,23.27C25.113,20.496 29.465,7.543 31.242,2.258Z" style="fill:#ffc60e;fill-rule:nonzero;"/>
    </g>
</svg>
